public/avatar/shoe/30.svg

<svg xmlns:xlink="http://www.w3.org/1999/xlink" height="38.3" width="36.05" xmlns="http://www.w3.org/2000/svg"><use height="16.55" transform="translate(8.3 13.1)" width="23.85" xlink:href="#a"/><defs><use height="16.55" width="23.85" xlink:href="#b" id="a"/><g id="b"><path d="M4.5-7.7q1.9.15 3.6 1.05L11.35.2q.2 2-.05 2.45l-.1.15Q9.25 5.15 2.35 6.9q-7.6 1.85-12.65 0l-.6-.3q-.35-.4-.35-2.4-.55-1 1.15-3.1l.9-1.1 5.75-5.35L-1.5-6.6q2.7-1.5 6-1.1" fill="#fff" fill-rule="evenodd" transform="translate(11.9 8.25)"/><path d="m-10.95 4-.55-.75.7-1.25 7.35-7.35L-1.9-6.4q4.6 2.2 10.2 0l2.85 6.15Q8.5 2.7 1.2 4.45q-4.45 1.1-8.3.6Q-9.15 4.9-10.95 4" fill="#de0101" fill-rule="evenodd" transform="translate(11.9 8.25)"/><path d="M-10.95 4q1.8.9 3.85 1.05 3.85.5 8.3-.6 7.3-1.75 9.95-4.7" fill="none" stroke="#666" stroke-linecap="round" stroke-linejoin="round" transform="translate(11.9 8.25)"/><path d="m2.55-5.3 4.95-.65Q8.2-1.8 5.4-.6 2.6.55-2.05.9l4.6-6.2" fill="#959595" fill-rule="evenodd" transform="translate(11.9 8.25)"/><path d="m2.55-5.3 4.95-.65Q8.2-1.8 5.4-.6 2.6.55-2.05.9" fill="none" stroke="#666" stroke-linecap="round" stroke-linejoin="round" transform="translate(11.9 8.25)"/><path d="M-3.35 1.8Q-5.85.4-9.9 1l-.2.15 8.35-7.6q.05 1.3 4.4 1.05l-6 7.2" fill="#959595" fill-rule="evenodd" transform="translate(11.9 8.25)"/><path d="m-3.35 1.8 6-7.2" fill="none" stroke="#666" stroke-linecap="round" stroke-linejoin="round" transform="translate(11.9 8.25)"/><path d="M-11.15 4q-.3-1.75.8-2.65l.5-.35q4.75-.65 7 1.6.9.9 1.4 2.25-5.6 1.45-9.7-.85" fill="#959595" fill-rule="evenodd" transform="translate(11.9 8.25)"/><path d="m-9.85 1-.5.35q-1.1.9-.8 2.65" fill="none" stroke="#333" stroke-linecap="round" stroke-linejoin="round" transform="translate(11.9 8.25)"/><path d="M-11.15 4q4.1 2.3 9.7.85-.5-1.35-1.4-2.25Q-5.1.35-9.85 1Z" fill="none" stroke="#666" stroke-linecap="round" stroke-linejoin="round" transform="translate(11.9 8.25)"/><path d="m-1.9-6.4.45-.25q5-2.15 9.6 0l.15.25q-5.6 2.2-10.2 0" fill="#e0e0e0" fill-rule="evenodd" transform="translate(11.9 8.25)"/><path d="M-1.9-6.4q4.6 2.2 10.2 0" fill="none" stroke="#666" stroke-linecap="round" stroke-linejoin="round" transform="translate(11.9 8.25)"/><path d="M4.5-7.7q-3.3-.35-6 1.1l-2 1.25L-9.2 0l-.9 1.1q-1.7 2.15-1.15 3.15 0 2 .4 2.3l.55.35q5.05 1.85 12.65 0 6.9-1.7 8.8-4.1l.15-.15q.25-.4.05-2.45l-3.3-6.85Q6.4-7.55 4.5-7.7Z" fill="none" stroke="#000" stroke-linecap="round" stroke-linejoin="round" transform="translate(11.9 8.25)"/><path d="m-1.7-.6-5.15-1.5m7.1-.75-4.9-1.5" fill="none" stroke="#666" stroke-linecap="round" stroke-linejoin="round" transform="translate(11.9 8.25)"/></g></defs></svg>

<?xml version="1.0" encoding="UTF-8" standalone="no"?>
<svg xmlns:xlink="http://www.w3.org/1999/xlink" height="38.3px" width="36.05px" xmlns="http://www.w3.org/2000/svg">
  <g transform="matrix(1.0, 0.0, 0.0, 1.0, 23.8, 14.85)">
    <use height="16.55" transform="matrix(1.0, 0.0, 0.0, 1.0, -15.5, -1.75)" width="23.85" xlink:href="#sprite0"/>
  </g>
  <defs>
    <g id="sprite0" transform="matrix(1.0, 0.0, 0.0, 1.0, 11.9, 8.25)">
      <use height="16.55" transform="matrix(1.0, 0.0, 0.0, 1.0, -11.9, -8.25)" width="23.85" xlink:href="#shape0"/>
    </g>
    <g id="shape0" transform="matrix(1.0, 0.0, 0.0, 1.0, 11.9, 8.25)">
      <path d="M4.5 -7.7 Q6.4 -7.55 8.1 -6.65 L11.35 0.2 Q11.55 2.2 11.3 2.65 L11.2 2.8 Q9.25 5.15 2.35 6.9 -5.25 8.75 -10.3 6.9 L-10.9 6.6 Q-11.25 6.2 -11.25 4.2 -11.8 3.2 -10.1 1.1 L-9.2 0.0 -3.45 -5.35 -1.5 -6.6 Q1.2 -8.1 4.5 -7.7" fill="#ffffff" fill-rule="evenodd" stroke="none"/>
      <path d="M-10.95 4.0 L-11.5 3.25 -10.8 2.0 -3.45 -5.35 -1.9 -6.4 Q2.7 -4.2 8.3 -6.4 L11.15 -0.25 Q8.5 2.7 1.2 4.45 -3.25 5.55 -7.1 5.05 -9.15 4.9 -10.95 4.0" fill="#de0101" fill-rule="evenodd" stroke="none"/>
      <path d="M-10.95 4.0 Q-9.15 4.9 -7.1 5.05 -3.25 5.55 1.2 4.45 8.5 2.7 11.15 -0.25" fill="none" stroke="#666666" stroke-linecap="round" stroke-linejoin="round" stroke-width="1.0"/>
      <path d="M2.55 -5.3 L7.5 -5.95 Q8.2 -1.8 5.4 -0.6 2.6 0.55 -2.05 0.9 L2.55 -5.3" fill="#959595" fill-rule="evenodd" stroke="none"/>
      <path d="M2.55 -5.3 L7.5 -5.95 Q8.2 -1.8 5.4 -0.6 2.6 0.55 -2.05 0.9" fill="none" stroke="#666666" stroke-linecap="round" stroke-linejoin="round" stroke-width="1.0"/>
      <path d="M-3.35 1.8 Q-5.85 0.4 -9.9 1.0 L-10.1 1.15 -1.75 -6.45 Q-1.7 -5.15 2.65 -5.4 L-3.35 1.8" fill="#959595" fill-rule="evenodd" stroke="none"/>
      <path d="M-3.35 1.8 L2.65 -5.4" fill="none" stroke="#666666" stroke-linecap="round" stroke-linejoin="round" stroke-width="1.0"/>
      <path d="M-11.15 4.0 Q-11.45 2.25 -10.35 1.35 L-9.85 1.0 Q-5.1 0.35 -2.85 2.6 -1.95 3.5 -1.45 4.85 -7.05 6.3 -11.15 4.0" fill="#959595" fill-rule="evenodd" stroke="none"/>
      <path d="M-9.85 1.0 L-10.35 1.35 Q-11.45 2.25 -11.15 4.0" fill="none" stroke="#333333" stroke-linecap="round" stroke-linejoin="round" stroke-width="1.0"/>
      <path d="M-11.15 4.0 Q-7.05 6.3 -1.45 4.85 -1.95 3.5 -2.85 2.6 -5.1 0.35 -9.85 1.0 Z" fill="none" stroke="#666666" stroke-linecap="round" stroke-linejoin="round" stroke-width="1.0"/>
      <path d="M-1.9 -6.4 L-1.45 -6.65 Q3.55 -8.8 8.15 -6.65 L8.3 -6.4 Q2.7 -4.2 -1.9 -6.4" fill="#e0e0e0" fill-rule="evenodd" stroke="none"/>
      <path d="M-1.9 -6.4 Q2.7 -4.2 8.3 -6.4" fill="none" stroke="#666666" stroke-linecap="round" stroke-linejoin="round" stroke-width="1.0"/>
      <path d="M4.5 -7.7 Q1.2 -8.05 -1.5 -6.6 L-3.5 -5.35 -9.2 0.0 -10.1 1.1 Q-11.8 3.25 -11.25 4.25 -11.25 6.25 -10.85 6.55 L-10.3 6.9 Q-5.25 8.75 2.35 6.9 9.25 5.2 11.15 2.8 L11.3 2.65 Q11.55 2.25 11.35 0.2 L8.05 -6.65 Q6.4 -7.55 4.5 -7.7 Z" fill="none" stroke="#000000" stroke-linecap="round" stroke-linejoin="round" stroke-width="1.0"/>
      <path d="M-1.7 -0.6 L-6.85 -2.1 M0.25 -2.85 L-4.65 -4.35" fill="none" stroke="#666666" stroke-linecap="round" stroke-linejoin="round" stroke-width="1.0"/>
    </g>
  </defs>
</svg>
